icons/desktop/16/svg/picture-in-picture-closed-16.svg

<svg width="16" height="16" viewBox="0 0 16 16" fill="none" xmlns="http://www.w3.org/2000/svg">
<path d="M14.1201 10.0001C14.547 10.0002 14.7607 10.5165 14.459 10.8185L13.0596 12.2179L15.7793 14.7901C16.0719 15.0672 16.0722 15.5162 15.7793 15.7931C15.6333 15.9321 15.441 16.0011 15.249 16.0011C15.057 16.0011 14.8647 15.932 14.7188 15.7931L12.0293 13.2481L10.8203 14.4581C10.5183 14.7611 10.001 14.5453 10.001 14.1183V10.4796C10.0011 10.2147 10.2165 10.0001 10.4814 10.0001H14.1201Z" fill="black"/>
<path d="M2.41504 0.262796C5.43488 -0.0851837 8.53768 -0.0861042 11.5615 0.260842C12.9505 0.419842 14 1.59617 14 2.99717V8.5001H12.5V2.99717C12.5 2.35917 12.0236 1.82308 11.3906 1.75108C9.93873 1.5841 8.46289 1.5001 7 1.5001C5.529 1.5001 4.04394 1.58503 2.58594 1.75303C1.96713 1.82506 1.50021 2.35749 1.5 2.99326V11.003C1.50016 11.6409 1.97648 12.1771 2.60938 12.2491C4.55523 12.4721 6.53315 12.5321 8.5 12.4562V13.9571C8.00001 13.9761 7.49899 14.0001 7 14.0001C5.48015 14.0001 3.94634 13.9113 2.43848 13.7384C1.04958 13.5794 0.000163268 12.4039 0 11.003V2.99326C0.000217122 1.59546 1.03818 0.421779 2.41504 0.262796Z" fill="black"/>
<path d="M8 3.0001C8.552 3.0001 9 3.4481 9 4.0001V7.0001C8.9998 7.55193 8.55188 8.0001 8 8.0001H4C3.44812 8.0001 3.0002 7.55193 3 7.0001V4.0001C3 3.4481 3.448 3.0001 4 3.0001H8Z" fill="black"/>
</svg>

<!-- This Source Code Form is subject to the terms of the Mozilla Public
   - License, v. 2.0. If a copy of the MPL was not distributed with this
   - file, You can obtain one at http://mozilla.org/MPL/2.0/. -->
<svg xmlns="http://www.w3.org/2000/svg" width="16" height="16" fill="context-fill" fill-opacity="context-fill-opacity" viewBox="0 0 16 16">
    <path d="M14.12 10a.48.48 0 0 1 .339.819l-1.4 1.399 2.72 2.572a.683.683 0 0 1 0 1.003.77.77 0 0 1-.53.208.77.77 0 0 1-.53-.208l-2.69-2.545-1.209 1.21a.48.48 0 0 1-.819-.34V10.48a.48.48 0 0 1 .48-.48z" />
    <path d="M2.415.263A40.3 40.3 0 0 1 11.562.26 2.753 2.753 0 0 1 14 2.997V8.5h-1.5V2.997c0-.638-.476-1.174-1.11-1.246a38.6 38.6 0 0 0-8.804.002A1.24 1.24 0 0 0 1.5 2.993v8.01c0 .638.476 1.174 1.11 1.246a39 39 0 0 0 5.89.207v1.501C8 13.977 7.499 14 7 14c-1.52 0-3.054-.089-4.562-.262A2.75 2.75 0 0 1 0 11.003v-8.01A2.74 2.74 0 0 1 2.415.263" />
    <path d="M8 3a1 1 0 0 1 1 1v3a1 1 0 0 1-1 1H4a1 1 0 0 1-1-1V4a1 1 0 0 1 1-1z" />
</svg>
